site/public/pin.svg

<svg xmlns="http://www.w3.org/2000/svg" width="730" height="965" fill="none" viewBox="0 0 730 965"><path stroke="#1e1e1e" stroke-linecap="round" stroke-width="71" d="M362.866 916.694c-.146-15.814-3.592-64.097-10.672-87.587-1.525-5.063-4.509-9.505-13.379-21.153s-24.11-30.156-60.689-66.544-94.035-90.094-132.445-129.968c-38.41-39.875-56.034-64.29-68.084-83.407s-17.992-32.196-23.761-50.314c-5.77-18.117-11.185-40.876-14.431-67.564s-4.158-56.615-3.849-76.601c.452-29.179 4.82-42.77 9.5-54.589 3.05-7.702 8.61-18.392 20.676-37.266 12.067-18.874 30.762-45.486 49.192-67.467 18.43-21.98 36.027-38.522 50.431-50.587 14.405-12.064 25.083-19.15 41.785-27.704 16.701-8.552 39.101-18.357 75.017-28.502s84.667-20.333 121.585-25.873 60.525-6.125 75.36-6.064c20.199.082 31.209 3.148 46.22 8.646 23.374 8.56 42.573 20.372 59.083 33.974 10.89 8.972 25.167 24.13 37.054 38.142 11.887 14.011 20.514 26.925 28.993 43.344 8.478 16.42 16.545 35.953 23.824 70.655 7.28 34.702 13.526 83.98 16.708 118.591s3.11 53.059 1.942 66.51c-1.168 13.45-3.429 21.343-10.446 36.835s-18.719 38.345-27.989 53.868c-14.304 23.951-28.737 36.447-52.767 54.511-17.277 12.988-46.684 31.236-69.972 48.512-23.288 17.277-40.028 32.39-50.752 42.426-15.212 14.237-30.535 34.806-48.147 59.667-13.176 18.599-19.639 37.966-23.138 54.504-3.329 15.735-3.765 27.631-4.56 43.167-.573 38.834-1.195 67.623-2.006 76.658-.423 6.237-.871 15.829-1.332 25.712"/><path stroke="#1e1e1e" stroke-linecap="round" stroke-width="71" d="M467.275 451.6h-18.048c-17.618 0-52.63 0-77.509-1.794-38.836-2.8-62.757-13.658-80.553-22.235-13.184-6.355-32.505-24.933-58.562-52.083-21.177-22.064-31.708-45.516-39.055-62.615-4.051-9.429-4.28-27.418-3.522-52.083.453-14.737 9.092-26.593 23.303-45.486 9.059-12.045 24.489-26.992 37.651-38.847 23.186-20.883 44.392-32.202 62.061-40.7 17.38-8.359 41.873-12.177 71.719-14.844 47.755-4.267 56.858 1.173 75.053 8.459 15.872 6.356 27.052 16.523 35.181 24.455 11.156 10.884 24.083 36.761 37.883 66.31 5.539 11.86 6.793 17.947 8.007 34.004 3.176 41.981 1.321 76.166-1.495 88.841-3.557 16.009-11.802 28.47-18.324 37.164-7.527 10.035-16.025 16.735-26.283 27.558-9.626 10.638-15.806 16.261-24.358 23.43-2.048 1.607-3.651 2.712-7.653 4.99"/><path stroke="#1e1e1e" stroke-linecap="round" stroke-width="71" d="M297.807 97.63c-4.604 0-18.628.934-41.445 9.788-14.929 5.793-21.205 12.258-59.864 58.943-10.553 12.745-20.663 28.058-35.147 49.727-15.528 23.232-21.763 47.284-30.827 85.477-7.103 29.928-2.334 52.441.467 64.155 5.073 21.207 15.374 42.303 31.481 66.073 10.806 15.947 30.883 36.936 43.61 50.528s18.499 18.423 21.063 19.533c2.563 1.109 1.742-1.65-10.899-29.865-12.642-28.214-37.079-81.801-51.599-115.715s-18.382-46.534-23.326-59.127c-16.081-40.969-23.292-48.887-30.97-60.489-1.452-2.196-3.792-.673-6.368 5.363-7.12 16.688-10.502 35.585-11.945 55.147-.924 12.522-.077 30.424 2.3 50.396 2.378 19.972 6.813 41.499 13.069 60.973 11.905 37.06 25.319 57.682 32.87 67.295 10.01 12.745 28.916 26.756 70.401 51.208 29.361 17.306 77.271 41.623 102.979 54.927s28.193 14.108 29.221 13.419.526-2.895-18.941-29.219-57.882-76.699-87.354-115.571-48.835-64.717-63.555-82.379-24.208-26.359-35.674-38.353c-41.119-43.011-47.204-53.124-54.8-56.578-8.868-4.032-12.87 28.958-15.16 60.743-.407 5.659.572 8.097 16.833 43.839s48.321 104.729 66.364 142.449c20.315 42.467 28.844 51.191 44.354 64.97 10.656 9.465 28.013 22.738 45.755 35.492 34.997 25.158 55.544 37.457 62.666 44.837 15.787 16.362 27.083 23.584 34.322 26.067 16.778 5.755 20.046 20.569 26.543 25.419 6.27 4.682-4.481 20.475-6.269 27.321-.663 2.537-1.045-14.523-.613-32.868.394-16.772 12.278-43.604 28.884-77.949 7.598-15.715 15.904-26.739 29.112-41.946s31.676-33.952 47.087-47.962c15.411-14.009 27.204-22.713 45.812-33.572s43.672-23.61 62.339-31.963 30.179-11.921 34.77-13.158c4.591-1.236 1.913-.032-24.372 21.976-26.284 22.008-76.094 64.784-111.722 97.683s-55.566 54.625-66.846 67.128-13.297 15.126 12.351-9.236 79.024-75.79 111.219-105.704 41.59-36.757 44.84-39.969.069-2.588-31.841 16.547-92.453 56.761-136.447 82.392c-43.994 25.632-69.604 38.129-83.465 43.694-13.862 5.564-15.2 3.817-15.483 1.048-.665-6.494 3.989-16.598 11.859-32.207 11.389-22.589 25.088-39.137 34.289-48.761 10.288-10.761 27.301-19.602 46.53-28.708 39.786-18.839 74.967-15.334 80.304-13.914 4.749 1.264-15.57 14.162-37.124 26.981-22.34 13.286-40.267 17.694-54.486 19.789-24.909 3.669-46.442 1.208-59.708-2.94-33.836-10.581-49.808-28.8-56.728-37.88-2.592-3.4-1.342-11.12-.865-19.15.309-5.191 19.25-6.567 56.78-5.645 20.908.514 45.563 2.246 71.903-.842s53.609-10.76 71.648-15.987c37.19-10.777 46.544-13.284 60.586-17.299 11.734-3.356 17.413-11.184 40.587-48.818 7.751-12.587 10.682-25.346 13.851-45.299 4.313-27.165.573-51.605-5.887-77.639-4.482-18.063-13.776-45.348-22.663-68.712s-17.692-41.821-26.798-57.916c-16.983-30.019-34.001-50.099-45.066-62.288-14.171-15.61-32.637-20.964-78.13-28.013-14.989-2.323-30.74-1.718-21.209-1.867s44.706-.15 67.275.996c31.614 1.604 44.898 7.387 57.543 12.99 21.226 9.403 39.121 21.298 51.401 31.672 15.069 12.729 24.608 25.492 33.524 42.121 6.687 12.472 16.244 33.916 25.82 63.629s18.494 67.245 23.282 100.101a479 479 0 0 1 4.942 76.001c-7.747 40.064-20.581 72.752-23.07 76.378-1.292 1.646-2.645 2.901-4.038 4.193M379.575 906.316c0 6.126.301 20.052.198 22.161-.101 2.061-3.777-4.569-6.293-6.515-1.166-.901-3.122.392-4.476-.192s-2.307-2.568-3.243-4.771-1.826-4.565-3.708-9.711m-29.961-169.612c0 .26 0 .52-.623.229s-1.868-1.139-13.882-14.225-34.756-38.384-58.189-64.448"/><path stroke="#1e1e1e" stroke-linecap="round" stroke-width="71" d="M259.246 694.702c1.619 1.174 14.131 17.277 42.003 60.212 19.087 29.4 46.443 75.383 61.315 99.761 18.068 29.614 20.644 35.341 22.286 37.2 1.604 1.817 2.642-6.913 8.921-26.021 5.335-16.239 17.268-44.983 48.412-92.678s81.708-113.272 119.247-156.905 60.524-63.336 71.637-72.739 9.66-7.909-6.68 4.364c-16.341 12.273-47.524 35.28-75.611 60.774s-52.133 52.778-71.844 79.043-34.36 50.686-43.537 66.416c-18.741 32.125-26.683 58.206-31.102 82.906-5.435 30.382-5.823 47.465-11.325 61.966-1.577 4.155-4.823 10.16 3.528 2.876 8.35-7.283 28.126-28.15 42.893-45.835 14.766-17.684 23.924-31.555 33.264-47.785 19.503-33.887 31.772-58.454 40.875-73.344 13.744-22.481 25.67-47.466 35.656-64.681 6.118-10.547 23.104-30.822 45.934-60.436 17.239-30.923 19.971-41.962 19.807-44.664-.287-.308-.989 1.544-2.696 4.91M382.333 924.454c-3.428-3.176-12.913-12.151-33.054-34.435-10.544-11.666-18.837-20.642-23.675-27.51-5.512-7.827-13.819-16.09-28.307-33.021-13.723-16.036-26.949-31.631-34.438-39.473-12.193-12.768-30.363-34.313-60.85-68.335-31.875-35.57-49.36-57.659-56.598-65.116-12.789-13.177-24.433-26.269-36.171-39.82-32.13-41.425-38.143-51.208-40.127-55.009-1.115-2.06-2.452-4.388-5.762-10.285"/><path stroke="#1e1e1e" stroke-linecap="round" stroke-width="71" d="M63.35 551.45c0-4.037-3.513-22.007-8.36-38.425-10.604-35.925-17.2-57.075-18.817-64.377-2.706-12.224 4.89 27.471 6.771 42.743 2.137 17.34 7.27 34.403 15.58 45.967 6.546 6.174 24.805 17.79 49.158 31.164 9.907 5.123 14.836 6.865 19.914 8.66"/></svg>

<svg width="730" height="965" viewBox="0 0 730 965" fill="none" xmlns="http://www.w3.org/2000/svg">
<path d="M362.866 916.694C362.72 900.88 359.274 852.597 352.194 829.107C350.669 824.044 347.685 819.602 338.815 807.954C329.945 796.307 314.705 777.798 278.126 741.41C241.547 705.022 184.091 651.316 145.681 611.442C107.271 571.567 89.6471 547.152 77.5972 528.035C65.5472 508.918 59.6049 495.839 53.8358 477.721C48.0667 459.604 42.6508 436.845 39.405 410.157C36.1591 383.469 35.2473 353.542 35.5565 333.556C36.0081 304.377 40.3763 290.786 45.0563 278.967C48.1065 271.265 53.6659 260.575 65.7323 241.701C77.7986 222.827 96.4943 196.215 114.924 174.234C133.354 152.254 150.951 135.712 165.355 123.647C179.76 111.583 190.438 104.497 207.14 95.9435C223.841 87.3906 246.241 77.5856 282.157 67.4406C318.072 57.2957 366.824 47.1078 403.742 41.5675C440.66 36.0273 464.267 35.4433 479.102 35.5039C499.301 35.5863 510.311 38.652 525.322 44.1498C548.696 52.7103 567.895 64.5215 584.405 78.1238C595.295 87.0958 609.572 102.254 621.459 116.266C633.346 130.277 641.973 143.191 650.452 159.61C658.93 176.03 666.997 195.563 674.276 230.265C681.556 264.967 687.802 314.245 690.984 348.856C694.166 383.466 694.094 401.915 692.926 415.366C691.758 428.816 689.497 436.709 682.48 452.201C675.464 467.694 663.761 490.546 654.491 506.069C640.187 530.02 625.754 542.516 601.724 560.58C584.447 573.568 555.04 591.816 531.752 609.092C508.464 626.369 491.724 641.482 481 651.518C465.788 665.755 450.465 686.324 432.853 711.185C419.677 729.784 413.214 749.151 409.715 765.689C406.386 781.424 405.95 793.32 405.155 808.856C404.582 847.69 403.96 876.479 403.149 885.514C402.726 891.751 402.278 901.343 401.817 911.226" stroke="#1E1E1E" stroke-width="71" stroke-linecap="round"/>
<path d="M467.275 451.6C467.059 451.6 466.844 451.6 449.227 451.6C431.609 451.6 396.597 451.6 371.718 449.806C332.882 447.006 308.961 436.148 291.165 427.571C277.981 421.216 258.66 402.638 232.603 375.488C211.426 353.424 200.895 329.972 193.548 312.873C189.497 303.444 189.268 285.455 190.026 260.79C190.479 246.053 199.118 234.197 213.329 215.304C222.388 203.259 237.818 188.312 250.98 176.457C274.166 155.574 295.372 144.255 313.041 135.757C330.421 127.398 354.914 123.58 384.76 120.913C432.515 116.646 441.618 122.086 459.813 129.372C475.685 135.728 486.865 145.895 494.994 153.827C506.15 164.711 519.077 190.588 532.877 220.137C538.416 231.997 539.67 238.084 540.884 254.141C544.06 296.122 542.205 330.307 539.389 342.982C535.832 358.991 527.587 371.452 521.065 380.146C513.538 390.181 505.04 396.881 494.782 407.704C485.156 418.342 478.976 423.965 470.424 431.134C468.376 432.741 466.773 433.846 462.771 436.124" stroke="#1E1E1E" stroke-width="71" stroke-linecap="round"/>
<path d="M297.807 97.6306C293.203 97.6306 279.179 98.564 256.362 107.418C241.433 113.211 235.157 119.676 196.498 166.361C185.945 179.106 175.835 194.419 161.351 216.088C145.823 239.32 139.588 263.372 130.524 301.565C123.421 331.493 128.19 354.006 130.991 365.72C136.064 386.927 146.365 408.023 162.472 431.793C173.278 447.74 193.355 468.729 206.082 482.321C218.809 495.912 224.581 500.744 227.145 501.854C229.708 502.963 228.887 500.204 216.246 471.989C203.604 443.775 179.167 390.188 164.647 356.274C150.127 322.359 146.265 309.74 141.321 297.147C125.24 256.178 118.029 248.26 110.351 236.658C108.899 234.462 106.559 235.985 103.983 242.021C96.8626 258.709 93.4814 277.606 92.0379 297.168C91.1138 309.69 91.9608 327.592 94.3384 347.564C96.716 367.536 101.151 389.063 107.407 408.537C119.312 445.597 132.726 466.219 140.277 475.832C150.287 488.577 169.193 502.588 210.678 527.04C240.039 544.346 287.949 568.663 313.657 581.967C339.365 595.271 341.85 596.075 342.878 595.386C343.906 594.697 343.404 592.491 323.937 566.167C304.47 539.843 266.055 489.468 236.583 450.596C207.111 411.723 187.748 385.879 173.028 368.217C158.309 350.554 148.82 341.858 137.354 329.864C96.2355 286.853 90.1503 276.74 82.5539 273.286C73.6861 269.254 69.6845 302.244 67.3942 334.029C66.9865 339.688 67.9656 342.126 84.227 377.868C100.488 413.61 132.548 482.597 150.591 520.317C170.906 562.784 179.435 571.508 194.945 585.287C205.601 594.752 222.958 608.025 240.7 620.779C275.697 645.937 296.244 658.236 303.366 665.616C319.153 681.978 330.449 689.2 337.688 691.683C354.466 697.438 357.734 712.252 364.231 717.102C370.501 721.784 359.75 737.577 357.962 744.423C357.299 746.96 356.917 729.9 357.349 711.555C357.743 694.783 369.627 667.951 386.233 633.606C393.831 617.891 402.137 606.867 415.345 591.66C428.553 576.453 447.021 557.708 462.432 543.698C477.843 529.689 489.636 520.985 508.244 510.126C526.852 499.267 551.916 486.516 570.583 478.163C589.25 469.81 600.762 466.242 605.353 465.005C609.944 463.769 607.266 464.973 580.981 486.981C554.697 508.989 504.887 551.765 469.259 584.664C433.63 617.563 413.693 639.289 402.413 651.792C391.133 664.295 389.116 666.918 414.764 642.556C440.413 618.193 493.788 566.766 525.983 536.852C558.177 506.938 567.573 500.095 570.823 496.883C574.073 493.671 570.892 494.295 538.982 513.43C507.072 532.565 446.529 570.191 402.535 595.822C358.541 621.454 332.931 633.951 319.07 639.516C305.208 645.08 303.87 643.333 303.587 640.564C302.922 634.07 307.576 623.966 315.446 608.357C326.835 585.768 340.534 569.22 349.735 559.596C360.023 548.835 377.036 539.994 396.265 530.888C436.051 512.049 471.232 515.554 476.569 516.974C481.318 518.238 460.999 531.136 439.445 543.955C417.105 557.241 399.178 561.649 384.959 563.744C360.05 567.413 338.517 564.952 325.251 560.804C291.415 550.223 275.443 532.004 268.523 522.924C265.931 519.524 267.181 511.804 267.658 503.774C267.967 498.583 286.908 497.207 324.438 498.129C345.346 498.643 370.001 500.375 396.341 497.287C422.681 494.199 449.95 486.527 467.989 481.3C505.179 470.523 514.533 468.016 528.575 464.001C540.309 460.645 545.988 452.817 569.162 415.183C576.913 402.596 579.844 389.837 583.013 369.884C587.326 342.719 583.586 318.279 577.126 292.245C572.644 274.182 563.35 246.897 554.463 223.533C545.575 200.169 536.771 181.712 527.665 165.617C510.682 135.598 493.664 115.518 482.599 103.329C468.428 87.7198 449.962 82.3653 404.469 75.3159C389.48 72.9931 373.729 73.5981 383.26 73.4489C392.79 73.2997 427.966 73.2997 450.535 74.4449C482.149 76.0489 495.433 81.8315 508.078 87.4342C529.304 96.8381 547.199 108.733 559.479 119.107C574.548 131.836 584.087 144.599 593.003 161.228C599.69 173.7 609.247 195.144 618.823 224.857C628.4 254.57 637.317 292.102 642.105 324.958C646.894 357.813 647.284 384.854 647.047 400.959C639.3 441.023 626.466 473.711 623.977 477.337C622.685 478.983 621.332 480.238 619.939 481.53" stroke="#1E1E1E" stroke-width="71" stroke-linecap="round"/>
<path d="M379.575 906.316C379.575 912.442 379.876 926.368 379.773 928.477C379.672 930.538 375.996 923.908 373.48 921.962C372.314 921.061 370.358 922.354 369.004 921.77C367.65 921.186 366.697 919.202 365.761 916.999C364.826 914.796 363.935 912.434 362.053 907.288" stroke="#1E1E1E" stroke-width="71" stroke-linecap="round"/>
<path d="M332.092 737.676C332.092 737.936 332.092 738.196 331.469 737.905C330.846 737.614 329.601 736.766 317.587 723.68C305.574 710.593 282.831 685.296 259.398 659.232" stroke="#1E1E1E" stroke-width="71" stroke-linecap="round"/>
<path d="M259.246 694.702C260.865 695.876 273.377 711.979 301.249 754.914C320.336 784.314 347.692 830.297 362.564 854.675C380.632 884.289 383.208 890.016 384.85 891.875C386.454 893.692 387.492 884.962 393.771 865.854C399.106 849.615 411.039 820.871 442.183 773.176C473.327 725.481 523.891 659.904 561.43 616.271C598.97 572.638 621.954 552.935 633.067 543.532C644.18 534.129 642.727 535.623 626.387 547.896C610.046 560.169 578.863 583.176 550.776 608.67C522.689 634.164 498.643 661.448 478.932 687.713C459.221 713.979 444.572 738.399 435.395 754.129C416.654 786.254 408.712 812.335 404.293 837.035C398.858 867.417 398.47 884.5 392.968 899.001C391.391 903.156 388.145 909.161 396.496 901.877C404.846 894.594 424.622 873.727 439.389 856.042C454.155 838.358 463.313 824.487 472.653 808.257C492.156 774.37 504.425 749.803 513.528 734.913C527.272 712.432 539.198 687.447 549.184 670.232C555.302 659.685 572.288 639.41 595.118 609.796C612.357 578.873 615.089 567.834 614.925 565.132C614.638 564.824 613.936 566.676 612.229 570.042" stroke="#1E1E1E" stroke-width="71" stroke-linecap="round"/>
<path d="M382.333 924.454C378.905 921.278 369.42 912.303 349.279 890.019C338.735 878.353 330.442 869.377 325.604 862.509C320.092 854.682 311.785 846.419 297.297 829.488C283.574 813.452 270.348 797.857 262.859 790.015C250.666 777.247 232.496 755.702 202.009 721.68C170.134 686.11 152.649 664.021 145.411 656.564C132.622 643.387 120.978 630.295 109.24 616.744C77.1095 575.319 71.0965 565.536 69.1134 561.735C67.9979 559.675 66.6608 557.347 63.3508 551.45" stroke="#1E1E1E" stroke-width="71" stroke-linecap="round"/>
<path d="M63.3508 551.45C63.3508 547.413 59.8375 529.443 54.9909 513.025C44.3858 477.1 37.7903 455.95 36.1734 448.648C33.4669 436.424 41.0624 476.119 42.9442 491.391C45.0809 508.731 50.2137 525.794 58.5246 537.358C65.0696 543.532 83.3291 555.148 107.682 568.522C117.589 573.645 122.518 575.387 127.596 577.182" stroke="#1E1E1E" stroke-width="71" stroke-linecap="round"/>
</svg>
